X:18
T:That Little Home Among The Hills
T:introduced Fuller Brothers 1921 'BlueBeard'
C:Vince Courtney (-1951)
S:https://nla.gov.au:443/tarkine/nla.obj-172519553
S:J Meredith, H Anderson, Folk Songs of Australia Vol 1, UNSW Press, p229, 1967
O:Australia
R:Country
M:6/8
L:1/8
K:Gmaj
[I: MIDI=program 59]()B3B2)^A | B2GE2D | ^C6  | A6 |
w:I've *been we-ary for a long time
=C2DE2F | (B3A3) | (D6 | D3)z3 | (B3B2)^A | B2GE2D | 
w:Thin-king of a place  I know*There's *no oth-er place just
(^C6 | A6) | B2EF2G | A3B3 | (A6 | A3)z3 | 
w:like it. A-ny-where I seem to go
(B3B2)^A | B2cB2E |(A6 | A2)^CE2G | B3_B3 | 
w:It's*as pre-tty as can be*It seems that it was
A3E3 | (A3A2)z3|:(B3B2)^A | B2ed2G | B2Ac2A | 
w:Made for me* Give*me just that litt-le home a-mong the 
E3F2G | B3A3 | F3E3 | (D6 | D3)z2F | G3G3 | 
w:hills with the I-vy on the wall *the old arm-
(G3G2)E | G2EG2E | F6 | A3A2B | A3G2E | 
w:chair*fa-mil-iar fa-ces there. One wears an old fash-ioned 
(A6 | A6) | (B3B2)^A | B2ed2B | (B3B2)A | 
w:shawl*There's* no need to show me oth-*er
E6 | F3G3 | A2dA2^A | (B6 | B3)z3 | 
w:views. I've seen all your vales and rills
c3B3 | (^G3G2)E | B3A3 | E3F2G | A (d2d3)|
w:I don't want*an-oth-er thing 'cept that li-ttle
c2AE2F | (G6 | G3)z3 :| 
w:home a-mong the hills.


